X:1055
T:Troika
C:Traditional Russian
L:1/8
M:2/4
R:Reel
S:Colin Hume's website,  colinhume.com  - chords can also be printed below the stave.
Q:1/4=140
%%MIDI gchord fzczfzcz
%%stretchstaff 0
%%MIDI program 71     Clarinet
%%MIDI chordprog 23   Tango Accordion
%%MIDI bassprog 32    Acoustic Bass
%%MIDI ratio 3 1
K:Dm
P:Intro
"Dm"fe fe | "/"a2A2 | "Am"f2e2 | "Dm"d4 ||
P:Tune
"Dm"DA2G | "/"F2E2 | "Dm"D2 "A7"^C2 | "Dm"D2 A,2 | "Dm"A,A2G | "/"F2E2 | "Dm"D2 "A7"^C2 | "Dm"D4 |
"C"Cc2B | "F"B2A2 | "Dm"zA2G | "Gm"G2F2 | "Gm"FE FG | "A7"A2A,2 | "Dm"F2 "A7"E2 | "Dm"D4 ||
"Dm"f>e f>e | "Dm"f2 "E7"d2 | "A"e2 e2 | "/"e2 ^c2 | "Dm"d4 | "E7"ef ed | "A"^c4 | "/"A4 |
"Dm"f>e f>e | "/"f2 ef | "Gm"g2 g2 | "Gm"g2 "A7"fe | "Dm"f2 a2 | "A7"e2 a2 | "Dm"d>e "A"d^c | "Dm"d4 |]

